contributed-vectors/efootball.svg

<svg xmlns="http://www.w3.org/2000/svg" xml:space="preserve" style="fill-rule:evenodd;clip-rule:evenodd;stroke-linejoin:round;stroke-miterlimit:2" viewBox="0 0 192 192"><circle cx="88" cy="88" r="88" style="fill:#fff" transform="translate(8 8)"/><path d="m135.065 51-18.938 18.938H69.402v17h29.725L80.91 105.155H69.402v11.509L51 135.065V51h84.065Z" style="fill:#9abeff"/><path d="M75.425 122.155H141V141H56.58l18.845-18.845Zm65.575-17H92.425l18.217-18.217h11.76v-11.76L141 56.58v48.575Z" style="fill:#ff837d"/><path d="M160.941 36.639C175.26 52.293 184 73.134 184 96c0 48.569-39.431 88-88 88-22.866 0-43.707-8.74-59.361-23.059l12.296-12.296C61.432 159.828 77.928 166.63 96 166.63c38.982 0 70.63-31.648 70.63-70.63 0-18.072-6.802-34.568-17.985-47.065l12.296-12.296Z" style="fill:#9abeff"/><path d="M30.89 155.176C16.67 139.539 8 118.774 8 96 8 47.431 47.431 8 96 8c22.774 0 43.539 8.67 59.176 22.89l-12.298 12.297C130.404 32.105 113.982 25.37 96 25.37c-38.982 0-70.63 31.648-70.63 70.63 0 17.982 6.735 34.404 17.817 46.878L30.89 155.176Z" style="fill:#ff837d"/></svg>

<?xml version="1.0" encoding="UTF-8" standalone="no"?>
<!DOCTYPE svg PUBLIC "-//W3C//DTD SVG 1.1//EN" "http://www.w3.org/Graphics/SVG/1.1/DTD/svg11.dtd">
<svg width="100%" height="100%" viewBox="0 0 192 192" version="1.1" xmlns="http://www.w3.org/2000/svg" xmlns:xlink="http://www.w3.org/1999/xlink" xml:space="preserve" xmlns:serif="http://www.serif.com/" style="fill-rule:evenodd;clip-rule:evenodd;stroke-linejoin:round;stroke-miterlimit:2;">
    <g id="Layer1">
        <g transform="matrix(1,0,0,1,8,8)">
            <circle cx="88" cy="88" r="88" style="fill:white;"/>
        </g>
        <path d="M135.065,51L116.127,69.938L69.402,69.938L69.402,86.938L99.127,86.938L80.91,105.155L69.402,105.155L69.402,116.664L51,135.065L51,51L135.065,51Z" style="fill:rgb(154,190,255);"/>
        <path d="M75.425,122.155L141,122.155L141,141L56.58,141L75.425,122.155ZM141,105.155L92.425,105.155L110.642,86.938L122.402,86.938L122.402,75.178L141,56.58L141,105.155Z" style="fill:rgb(255,131,125);"/>
        <path d="M160.941,36.639C175.26,52.293 184,73.134 184,96C184,144.569 144.569,184 96,184C73.134,184 52.293,175.26 36.639,160.941L48.935,148.645C61.432,159.828 77.928,166.63 96,166.63C134.982,166.63 166.63,134.982 166.63,96C166.63,77.928 159.828,61.432 148.645,48.935L160.941,36.639Z" style="fill:rgb(154,190,255);"/>
        <path d="M30.89,155.176C16.67,139.539 8,118.774 8,96C8,47.431 47.431,8 96,8C118.774,8 139.539,16.67 155.176,30.89L142.878,43.187C130.404,32.105 113.982,25.37 96,25.37C57.018,25.37 25.37,57.018 25.37,96C25.37,113.982 32.105,130.404 43.187,142.878L30.89,155.176Z" style="fill:rgb(255,131,125);"/>
    </g>
</svg>
